X:1
T: Whisky Welcome back again
C:Niel Gow
R:Strathspey
Q: 128
K:Bb
M:4/4
L:1/16
|:B,2B2 B3d c3B c3d|Bc3 GB3 F3D C4|B,2B2 B3d c3B c3d|B3F GB3 F2D2 B,4|
B,2B2 B3d c3B c3d|Bc3 GB3 F3D C4|B,2B2 B3d c3B c3d|B3F GB3 F2D2 B,4|
d2f2 f3g f2d2 c2B2|d2f2 f3g f2d2 c4|d2f2 f3g f2d2 cd3|B3F GB3 F2D2 B,4|
d2f2 f3g f2d2 c2B2|d2f2 f3g f2d2 c3e|df3 cd3 B3c d3c|B3F GB3 F2D2 B,4:|
